X:1
T:Standin In The Need of Prayer
T:Good-bye, brothers
T:Copyright 1881 by The Riverside Press
T:Rodeheaver's Plantation Melodies
Z:Rodeheaver's Plantation Melodies
%%score [ 1 2 3 4 ]
L:1/8
Q:1/4=70
M:2/4
K:F
V:1 treble nm="Soprano" snm="S."
V:2 treble nm="Alto" snm="A."
V:3 bass nm="Tenor" snm="T."
V:4 bass nm="Bass" snm="B."
V:1
 FF F<A | cc c/AG/ | FF G/G/A/A/ | G3 C | F/F/F F<A | c/c/c/c/ c/AF/ | AA G/G/G/G/ | F4 |] %8
V:2
 FF F<F | AA A/FE/ | FF E/E/F/F/ | E3 C | F/F/F F<F | A/A/A/A/ A/FF/ | FF E/E/E/E/ | F4 |] %8
w: Good- bye bro- thers,|good- bye sis- ters. If|I don't see you a- ny-|more. I'll|meet you in hea- ven,|in the bles- sed king- dom. If|I don't see you a- ny-|more.|
V:3
 A,A, A,<C | FF F/CB,/ | A,A, C/C/C/C/ | C,3 F, | F,/F,/F, F,<C | F/F/F/F/ F/CA,/ | %6
 CC B,/B,/B,/B,/ | A,4 |] %8
V:4
 F,F, F,<F, | F,F, F,/F,F,/ | F,F, C,/C,/C,/C,/ | C,3 F, | F,/F,/F, F,<F, | %5
"_2. We'll  part in the body, we'll meet in the spirit, If I don't see you more;\n    So now God bless you, God bless you, If I don't see you more." F,/F,/F,/F,/ F,/F,F,/ | %6
 C,C, C,/C,/C,/C,/ | F,4 |] %8

